www/assets/icons/drafts.svg

<svg xmlns="http://www.w3.org/2000/svg" width="24" height="24" viewBox="0 0 24 24" fill='currentColor'><path d="M21.99 9.5c0-.72-.37-1.35-.94-1.7L12 2.5 2.95 7.8c-.57.35-.95.98-.95 1.7v10c0 1.1.9 2 2 2h16c1.1 0 2-.9 2-2zm-9.99 5L3.74 9.34 12 4.5l8.26 4.84z"/></svg>

<svg width="24" height="24" viewBox="0 0 24 24" xmlns="http://www.w3.org/2000/svg" fill='currentColor'><path d="M21.99 9.5C21.99 8.78 21.62 8.15 21.05 7.8L12 2.5L2.95 7.8C2.38 8.15 2 8.78 2 9.5V19.5C2 20.6 2.9 21.5 4 21.5H20C21.1 21.5 22 20.6 22 19.5L21.99 9.5ZM12 14.5L3.74 9.34L12 4.5L20.26 9.34L12 14.5Z"/></svg>
